X: 35407
T: Roulette
R: jig
M: 6/8
K: Gmajor
G2D GBd|dGc DBA|c2B BFG|cDB DAF|
G2D GAB|B2d- dgf|egd BGA|1 AGF E2F:|2 AGF E2d||
fgf d2g|f2g- gag|gdd BGA|AGF E2d|
fgf d2g|f2g- ga2|gfe- e3|dgb abd|
fgf d2g|f2g- gag|gdd BGA|AGF G2D|
E2D EGD|D2E- EFG|cDB DAG|B2A AGF||

